X:1
T: Glen Lyon
C:
R:Reel
Q: 232
K:Am
M:4/4
L:1/8
|:g|eA A1/2A1/2A ed Bd|BG G1/2G1/2G BA Bd|eA A1/2A1/2A ed Bd|ed gB A3g|
eA A1/2A1/2A ed Bd|BG G1/2G1/2G BA Bd|eA A1/2A1/2 Ae dB|de dg BA3g|
ed eg ab ag|dg Bg dg Bg|ed eg ab ag|ed gB A3g|
ed eg ab ag|dg Bg dg Bg|ed eg ab ag|ed gB A3:|
